X:1
T:Title
%%score { ( 1 4 ) | ( 2 3 ) }
L:1/8
Q:1/4=108
M:4/4
K:G
V:1 treble nm="Grand Piano"
V:4 treble 
V:2 bass 
V:3 bass 
V:1
 [DGB]2 [DGB]2 [DGB]2 [DGB]2 | [DGB]2 [DGB]2 [DGB]2 [GB]2 | [FA]>[=F^G] [^FA]>[=GB] [Ac]4 | %3
w: Haldor~Lillenas * * *|||
 [DGB]>[DFA] [DGB]>[DAc] [DBd]4 | [DGB]2 [DGB]2 [DGB]2 [DGB]2 | [DGB]2 [DGB]2 [DGB]2 [GB]2 | %6
w: |||
 [FA]>[=F^G] [^FA]>[GB] [Ac]2 F2 | G6 z2 | B>_B =B>_B =B2 d2 | c8 | %10
w: ||||
 [Ac]>[^GB] [Ac]>[GB] [Ac]2 [ce]2 | B2 z2 z4 | B>_B =B>_B =B2 [GB]2 |[M:5/4] [Gc]2 [Gd]2 [Ge]6 | %14
w: ||||
[M:4/4] [Gd]>[Gd] [Gd]>[EGc] [DFB]2 [CFA]2 | G6 z2 |] %16
w: ||
V:2
 D,2 G,2 F,2 E,2 | z4 B,4 | [D,D]>[D,D] [D,D]>[D,D] [D,D]4 | G,>G, G,>G, G,4 | D,2 G,2 F,2 E,2 | %5
 z4 B,4 | [D,D]>[D,D] [D,D]>[D,D] [D,D]2 [D,CD]2 | [G,B,D]6 z2 | %8
 [G,DG]>[G,^CG] [G,DG]>[G,CG] [G,DG]2 [G,B,G]2 | [A,F]2 z2 z4 | %10
 [D,D]>[D,D] [D,D]>[D,D] [D,D]2 [F,D]2 | G,2- [G,-B,]2 [G,-C]2 [G,D]2 | %12
 [G,DG]>[G,^CG] [G,DG]>[G,CG] [G,DG]2[K:bass] [=F,D]2 |[M:5/4] [E,C]2 [D,B,]2 [C,C]6 | %14
[M:4/4] [D,B,]>[D,B,] [D,B,]>D, D,2 D,2 | z2 C2 B,2 z2 |] %16
V:3
 x8 | D,2 G,2 z2 D2 | x8 | x8 | x8 | D,2 G,2 z2 D2 | x8 | x8 | x8 | D2- [D,D-]2 [E,D-]2 [F,D]2 | %10
 x8 | B,2 z2 z4 | x6[K:bass] x2 |[M:5/4] x10 |[M:4/4] x8 | G,6 z2 |] %16
V:4
 x8 | x8 | x8 | x8 | x8 | x8 | x8 | x8 | x8 | z2 F2 G2 A2 | x8 | d2- [Gd-]2 [Ad-]2 [Bd]2 | x8 | %13
[M:5/4] x10 |[M:4/4] x8 | B,2 E2 D2 z2 |] %16

